!!!!SEGMENT: pl-kk--kk-i-290--001_anonim--stabat-mater.krn
!!!cenid: 17xx:2040
!!!COM: Anonim
!!!COM-rismid: pe30004985
!!!CDT:
!!!CNT:
!!!OTL: Stabat Mater
!!!PDT:
!!!AGN: Sacred
!!!SMS-siglum: PL-Kk
!!!SMS-shelfmark: Kk.I.290
!!!SMS-shelfwork: 001 W
!!!SMS-variant:
!!!SMS-altvar:
!!!NIFC-rismid: 1001144590
!!!URL-scan: http://repozytorium.nifc.pl/skany/pl-kk-nut--i-290
!!!ONB-nifc: UWAGA: utwory w zbiorze: 1. Stabat Mater (skan 0001), 2. Stabat Mater (skan 0002)
**kern	**text	**text
*Iempty	*	*
*I"	*	*
*clefF4	*	*
*k[b-]	*	*
*g:	*	*
*M4/4	*	*
*met(c)	*	*
=1	=1	=1
!LO:TX:t=P:problem:oddech jako rozdzielacz słów, przeważnie na wysokości dźwięku poprzedzającego:global	!	!
!LO:TX:t=P:problem:znaki: B- nad BB-	!	!
4.G\	I. Sta-	2. Cu-
8G\	-bat	-jus
!LO:SIC:l:s:v=:verse: 1:M poprawione na znak repetycji	!	!
*	*ij	*ij
4.G\	Sta-	Cu-
8G\	-bat	-jus
*	*Xij	*Xij
=2	=2	=2
4C/	Ma-	a-
4C/	-ter	-ni-
4C/	do-	-mam
4G\	-lo-	ge-
=3	=3	=3
2D/	-ro-	-men-
2D/	-sa	-tem
=4	=4	=4
4r	.	.
*2\right	*	*
!LO:SIC:l:s:v=:verse: 1:juxta Crucem lakrymosa poprawiony na znak repetycji	!	!
*	*ij	*
2B-\	Sta-	Cu-
4B-\	-bat	-jus
=5	=5	=5
4.E-X\	Ma-	a-
8E-\	-ter	-ni-
4E-\	do-	-ma
4B-\	-lo-	ge-
=6	=6	=6
2F\	-ro-	-men-
!!LO:LB:g=original
4F\	-sa	-tem
*	*Xij	*
8D/	ju-	Con-
8D/	-xta	-tri-
=7	=7	=7
4.G\	Cru-	-sta-
8A\	-cem	-ta(m)
4B-\	la-	et
4G\	-kry-	do-
=8	=8	=8
(<2A\	-mo-	-len-
2AA/)	-sa	.
=9	=9	=9
4D,/	dum	tem
8D/	pen-	per-
8D/	-de-	-tran-
8En\	-bat	-si-
8E\	du(m)	-vit
8F#X\	pen-	per-
8F#\	-de-	-tran-
=10	=10	=10
4.G\	.	-si-
8F\	.	.
4.E-X\	.	.
8D\	.	.
!!LO:LB:g=original
=11	=11	=11
2C/	.	.
4.BB-/	.	.
8C/	-bat	-vit
=12	=12	=12
4.D\	Fi-	gla-
8D\	-li-	-di-
2GG/	-us	-us.
=13||	=13||	=13||
*M4/4	*	*
*met(c)	*	*
2.G\	3. O	4. Quae
4G\	qua(m)	mae-
=14	=14	=14
1C/	tris-	-re-
=15	=15	=15
4G,\	-tis!	-bat
2D/	O	quae
4D/	qua(m)	mae-
=16	=16	=16
4.C#X/	tris-	-re-
8C#/	-tis	-bat
4F\	et	et
4G\	af-	do-
=17	=17	=17
1E-X\	-fli-	-le-
=18	=18	=18
!LO:SIC:v:t=custos BB	!	!
4D,/	-cta	-bat
!!LO:LB:g=original
2BB-/	fu-	pi-
4BB-/	-it	-a
=19	=19	=19
4.E-X\	il-	Ma-
8F\	-la	-ter
4G\	be-	cum
4E-\	-ne-	vi-
=20	=20	=20
!LO:TX:t=P:problem:brak kreski taktowej	!	!
1F\	-di-	-de-
=21	=21	=21
4BB-,/	-cta	-bat
8E-X\	Ma-	Na-
8D\	-ter	-ti
4.C/	u-	poe-
8C/	-ni-	-nas
=22	=22	=22
4.D/	-ge-	in-
8C/	-ni-	-cly-
2BB-/	-ti	-ti
=23	=23	=23
*	*	*ij
4.C/	Ma-	Na-
8BB-/	-ter	-ti
4AA/	u-	poe-
4AA/	-ni-	-nas
=24	=24	=24
4.BB-/	-ge-	in-
8C/	.	.
4.D/	.	.
!LO:TX:t=P:problem:brak kreski taktowej	!	!
8D/	-ni-	-cly-
=25	=25	=25
1GG/	-ti	-ti
*	*	*Xij
!!LO:LB:g=original
=26||	=26||	=26||
*M3/2	*	*
2r	.	.
2G\	5. Quis	6. Quis
2F\	eſt	non
=27	=27	=27
2.B-\	ho-	poſ-
4A\	-mo	-set
2G\	qui	con-
=28	=28	=28
2E-X\	non	-tri-
1F\	fle-	-ſta-
=29	=29	=29
2BB-,/	-ret?	-ri?
2B-\	Ma-	Chri-
2A\	-trem	-sti
=30	=30	=30
1G\	(Chris)-	Ma-
2G,\	-ti	-trem
=31	=31	=31
*	*ij	*ij
1A\	Ma-	Chri-
2G\	-trem	-sti
=32	=32	=32
2.F\	(Chris)-	Ma-
4E,\	-ti	-trem
*	*Xij	*Xij
2D\	si	con-
=33	=33	=33
2F\	vi-	-tem-
(2G\	-de-	-pla-
2A\)	.	.
!!LO:LB:g=original
=34	=34	=34
1D\,	-ret	-ri
2D/	in	do-
=35	=35	=35
2BBn/	tan-	-len-
2BB/	-to	-tem
2C/	sup-	cum
=36	=36	=36
1AA/	-pli-	Fi-
2AA/	-ci-	-li-
=37	=37	=37
1GG/,	-o	-o
2G\	in	do-
=38	=38	=38
2E-X\	tan-	-len-
2E-\	-to	-tem
*	*ij	*ij
2BBn/	in	do-
=39	=39	=39
1C/	tan-	-len-
2AA/	-to	-tem
*	*Xij	*Xij
=40	=40	=40
4BB-/	Sup-	cum
4C/	.	.
2.D/	-pli-	Fi-
4D/	-ci-	-li-
=41	=41	=41
0.GG/;	-o	-o.
==	==	==
*-	*-	*-
!!!EED: Leszek Kubiak
!!!EST: 2021-03-03
!!!ENC: Katarzyna Serwa
!!!END: 2021-02-15
